packages/core/src/svgs/tokens/mono/KDA.svg

<svg width="24" height="24" viewBox="0 0 24 24" fill="none" xmlns="http://www.w3.org/2000/svg">
<path d="M21.2857 22H15.0951L8.74512 12.9525L11.2851 7.71436L21.2857 22Z" fill="white"/>
<path d="M2.71436 2H7.71434V22H2.71436V2Z" fill="white"/>
<path d="M20.1744 2H14.4606L7.71436 8.87497V15.1225L20.1744 2Z" fill="white"/>
</svg>

<svg xmlns="http://www.w3.org/2000/svg" width="24" height="24" fill="none" viewBox="0 0 24 24">
    <path fill="#fff" d="M21.286 22h-6.19l-6.35-9.047 2.54-5.239zM2.714 2h5v20h-5z"/>
    <path fill="#fff" d="M20.174 2h-5.713L7.714 8.875v6.248z"/>
</svg>
